src/xmb/monochrome/Non-Redump - Sony - PlayStation Portable.svg

<svg xmlns="http://www.w3.org/2000/svg" xml:space="preserve" viewBox="0 0 64 64"><path d="M58.1 19.7c-.9-1-2.2-1.7-5.1-1.7H11c-2.9 0-4.2.7-5.1 1.7C2.8 22.9 1 27.2 1 32s1.8 9.1 4.9 12.3c.9 1 2.2 1.7 5.1 1.7h42c2.9 0 4.2-.7 5.1-1.7C61.2 41.1 63 36.8 63 32s-1.8-9.1-4.9-12.3M8.5 38c-.8 0-1.5.7-1.5 1.5S7.7 41 8.5 41s1.5-.7 1.5-1.5S9.3 38 8.5 38m48-12c.8 0 1.5.7 1.5 1.5s-.7 1.5-1.5 1.5-1.5-.7-1.5-1.5.7-1.5 1.5-1.5M6 27c0-.6.4-1 1-1h1c.6 0 1 .4 1 1v.5c0 .5-.1.6-.2.7-.2.1-.4.4-.6.5-.3.2-.5.3-.7.3s-.4-.1-.7-.3c-.2-.2-.5-.4-.6-.5S6 28 6 27.5zm2.2 4.3c.2.2.5.4.6.5s.2.2.2.7v.5c0 .6-.4 1-1 1H7c-.6 0-1-.4-1-1v-.5c0-.5.1-.6.2-.7.2-.1.4-.4.6-.5.3-.2.5-.3.7-.3s.4.1.7.3m-2.5 0c-.1.1-.2.2-.7.2h-.5c-.6 0-1-.4-1-1v-1c0-.6.4-1 1-1H5c.5 0 .6.1.7.2.1.2.3.4.5.6s.3.4.3.7-.1.4-.3.7c-.2.2-.4.4-.5.6M8.5 42C7.1 42 6 40.9 6 39.5S7.1 37 8.5 37s2.5 1.1 2.5 2.5S9.9 42 8.5 42m3-11.5c0 .6-.4 1-1 1H10c-.5 0-.6-.1-.7-.2-.1-.2-.4-.4-.5-.6-.2-.2-.3-.4-.3-.7s.1-.4.3-.7c.2-.2.4-.5.5-.6s.2-.2.7-.2h.5c.6 0 1 .4 1 1zM14 41V21c0-.6.4-1 1-1h34c.6 0 1 .4 1 1v20c0 .6-.4 1-1 1H15c-.6 0-1-.4-1-1m5.5 4h-1c-.3 0-.5-.2-.5-.5s.2-.5.5-.5h1c.3 0 .5.2.5.5s-.2.5-.5.5m4 0h-1c-.3 0-.5-.2-.5-.5s.2-.5.5-.5h1c.3 0 .5.2.5.5s-.2.5-.5.5m22 0c-.7 0-1.2-.4-1.4-1h2.8c-.2.6-.7 1-1.4 1m4 0c-.7 0-1.2-.4-1.4-1h2.8c-.2.6-.7 1-1.4 1m4-13c-.8 0-1.5-.7-1.5-1.5s.7-1.5 1.5-1.5 1.5.7 1.5 1.5-.7 1.5-1.5 1.5m3 3c-.8 0-1.5-.7-1.5-1.5s.7-1.5 1.5-1.5 1.5.7 1.5 1.5-.7 1.5-1.5 1.5m3-3c-.8 0-1.5-.7-1.5-1.5s.7-1.5 1.5-1.5 1.5.7 1.5 1.5-.7 1.5-1.5 1.5" style="fill:#fff"/></svg>

<?xml version="1.0" encoding="utf-8"?>
<svg version="1.1" xmlns="http://www.w3.org/2000/svg" x="0px" y="0px" viewBox="0 0 64 64" style="enable-background:new 0 0 64 64;" xml:space="preserve">
<style type="text/css">
	.st0{fill:#FFFFFF;}
</style>
<path id="PSP_1" class="st0" d="M58.1,19.7c-0.9-1-2.2-1.7-5.1-1.7H11c-2.9,0-4.2,0.7-5.1,1.7C2.8,22.9,1,27.2,1,32s1.8,9.1,4.9,12.3c0.9,1,2.2,1.7,5.1,1.7h42
	c2.9,0,4.2-0.7,5.1-1.7C61.2,41.1,63,36.8,63,32S61.2,22.9,58.1,19.7z M8.5,38C7.7,38,7,38.7,7,39.5S7.7,41,8.5,41s1.5-0.7,1.5-1.5S9.3,38,8.5,38z M56.5,26c0.8,0,1.5,0.7,1.5,1.5S57.3,29,56.5,29S55,28.3,55,27.5S55.7,26,56.5,26z M6,27c0-0.6,0.4-1,1-1h1c0.6,0,1,0.4,1,1c0,0,0,0,0,0.5s-0.1,0.6-0.2,0.7c-0.2,0.1-0.4,0.4-0.6,0.5C7.9,28.9,7.7,29,7.5,29s-0.4-0.1-0.7-0.3c-0.2-0.2-0.5-0.4-0.6-0.5C6.1,28.1,6,28,6,27.5S6,27,6,27z M8.2,31.3c0.2,0.2,0.5,0.4,0.6,0.5C8.9,31.9,9,32,9,32.5S9,33,9,33c0,0.6-0.4,1-1,1H7c-0.6,0-1-0.4-1-1c0,0,0,0,0-0.5s0.1-0.6,0.2-0.7c0.2-0.1,0.4-0.4,0.6-0.5C7.1,31.1,7.3,31,7.5,31
	S7.9,31.1,8.2,31.3z M5.7,31.3c-0.1,0.1-0.2,0.2-0.7,0.2s-0.5,0-0.5,0c-0.6,0-1-0.4-1-1v-1c0-0.6,0.4-1,1-1c0,0,0,0,0.5,0s0.6,0.1,0.7,0.2c0.1,0.2,0.3,0.4,0.5,0.6s0.3,0.4,0.3,0.7s-0.1,0.4-0.3,0.7C6,30.9,5.8,31.1,5.7,31.3L5.7,31.3z M8.5,42C7.1,42,6,40.9,6,39.5S7.1,37,8.5,37s2.5,1.1,2.5,2.5S9.9,42,8.5,42z M11.5,30.5c0,0.6-0.4,1-1,1c0,0,0,0-0.5,0s-0.6-0.1-0.7-0.2c-0.1-0.2-0.4-0.4-0.5-0.6c-0.2-0.2-0.3-0.4-0.3-0.7s0.1-0.4,0.3-0.7c0.2-0.2,0.4-0.5,0.5-0.6s0.2-0.2,0.7-0.2s0.5,0,0.5,0c0.6,0,1,0.4,1,1V30.5z M14,41V21c0-0.6,0.4-1,1-1h34c0.6,0,1,0.4,1,1v20c0,0.6-0.4,1-1,1H15C14.4,42,14,41.6,14,41z M19.5,45h-1c-0.3,0-0.5-0.2-0.5-0.5s0.2-0.5,0.5-0.5h1c0.3,0,0.5,0.2,0.5,0.5S19.8,45,19.5,45z M23.5,45h-1c-0.3,0-0.5-0.2-0.5-0.5s0.2-0.5,0.5-0.5h1c0.3,0,0.5,0.2,0.5,0.5S23.8,45,23.5,45z M45.5,45c-0.7,0-1.2-0.4-1.4-1h2.8C46.7,44.6,46.2,45,45.5,45z M49.5,45c-0.7,0-1.2-0.4-1.4-1h2.8C50.7,44.6,50.2,45,49.5,45z M53.5,32c-0.8,0-1.5-0.7-1.5-1.5s0.7-1.5,1.5-1.5s1.5,0.7,1.5,1.5S54.3,32,53.5,32z M56.5,35c-0.8,0-1.5-0.7-1.5-1.5s0.7-1.5,1.5-1.5s1.5,0.7,1.5,1.5S57.3,35,56.5,35z M59.5,32c-0.8,0-1.5-0.7-1.5-1.5s0.7-1.5,1.5-1.5s1.5,0.7,1.5,1.5S60.3,32,59.5,32z"/>
</svg>
